Simply-Cyan-Circles/scalable/apps/tilix.svg

<svg xmlns="http://www.w3.org/2000/svg" width="48" height="48" viewBox="0 0 12.7 12.7"><path d="M6.34.07a6.29 6.29 0 0 0-6.29 6.3 6.29 6.29 0 0 0 6.3 6.28 6.29 6.29 0 0 0 6.28-6.29A6.29 6.29 0 0 0 6.34.07zm-.25.95v10.8a5.4 5.4 0 0 1-5.17-5.4 5.4 5.4 0 0 1 5.17-5.4zm.6 0a5.4 5.4 0 0 1 5.04 5.4 5.4 5.4 0 0 1-5.05 5.4V1.01zM2.3 3.67a.21.33 45 0 0-.35.51l1.11 1.12L1.96 6.4a.33.21 45 1 0 .46.46L3.8 5.5a.33.21 45 0 0 .03-.05.11.2 0 0 0 .04-.16.11.2 0 0 0-.04-.16.21.33 45 0 0-.03-.04L2.42 3.7a.21.33 45 0 0-.1-.04zm5.3 0a.21.33 45 0 0-.36.51l1.12 1.12L7.25 6.4a.33.21 45 1 0 .47.46L9.09 5.5a.33.21 45 0 0 .04-.05.11.2 0 0 0 .04-.16.11.2 0 0 0-.05-.16.21.33 45 0 0-.03-.04L7.72 3.7a.21.33 45 0 0-.12-.04zM3.62 6.13a.21.33 0 1 0 0 .66h1.95a.21.33 0 0 0 0-.66H3.64zm5.3 0a.21.33 0 1 0 0 .66h1.94a.21.33 0 0 0 0-.66H8.93z" fill="#5beedc"/></svg>

<?xml version="1.0" encoding="UTF-8" standalone="no"?>
<svg
   xmlns:dc="http://purl.org/dc/elements/1.1/"
   xmlns:cc="http://creativecommons.org/ns#"
   xmlns:rdf="http://www.w3.org/1999/02/22-rdf-syntax-ns#"
   xmlns:svg="http://www.w3.org/2000/svg"
   xmlns="http://www.w3.org/2000/svg"
   xmlns:sodipodi="http://sodipodi.sourceforge.net/DTD/sodipodi-0.dtd"
   xmlns:inkscape="http://www.inkscape.org/namespaces/inkscape"
   width="48"
   height="48"
   viewBox="0 0 12.7 12.7"
   version="1.1"
   id="svg4"
   sodipodi:docname="tilix.svg"
   inkscape:version="0.92.4 (5da689c313, 2019-01-14)">
  <metadata
     id="metadata10">
    <rdf:RDF>
      <cc:Work
         rdf:about="">
        <dc:format>image/svg+xml</dc:format>
        <dc:type
           rdf:resource="http://purl.org/dc/dcmitype/StillImage" />
        <dc:title></dc:title>
      </cc:Work>
    </rdf:RDF>
  </metadata>
  <defs
     id="defs8" />
  <sodipodi:namedview
     pagecolor="#ffffff"
     bordercolor="#666666"
     borderopacity="1"
     objecttolerance="10"
     gridtolerance="10"
     guidetolerance="10"
     inkscape:pageopacity="0"
     inkscape:pageshadow="2"
     inkscape:window-width="1087"
     inkscape:window-height="480"
     id="namedview6"
     showgrid="false"
     inkscape:zoom="4.9166667"
     inkscape:cx="2.1355932"
     inkscape:cy="24"
     inkscape:window-x="0"
     inkscape:window-y="25"
     inkscape:window-maximized="0"
     inkscape:current-layer="svg4" />
  <path
     d="M 6.34,0.07 A 6.29,6.29 0 0 0 0.05,6.37 6.29,6.29 0 0 0 6.35,12.65 6.29,6.29 0 0 0 12.63,6.36 6.29,6.29 0 0 0 6.34,0.07 Z M 6.09,1.02 v 10.8 A 5.4,5.4 0 0 1 0.92,6.42 5.4,5.4 0 0 1 6.09,1.02 Z m 0.6,0 a 5.4,5.4 0 0 1 5.04,5.4 5.4,5.4 0 0 1 -5.05,5.4 V 1.01 Z M 2.3,3.67 A 0.21,0.33 45 0 0 1.95,4.18 L 3.06,5.3 1.96,6.4 A 0.33,0.21 45 1 0 2.42,6.86 L 3.8,5.5 A 0.33,0.21 45 0 0 3.83,5.45 0.11,0.2 0 0 0 3.87,5.29 0.11,0.2 0 0 0 3.83,5.13 0.21,0.33 45 0 0 3.8,5.09 L 2.42,3.7 A 0.21,0.33 45 0 0 2.32,3.66 Z m 5.3,0 A 0.21,0.33 45 0 0 7.24,4.18 L 8.36,5.3 7.25,6.4 A 0.33,0.21 45 1 0 7.72,6.86 L 9.09,5.5 A 0.33,0.21 45 0 0 9.13,5.45 0.11,0.2 0 0 0 9.17,5.29 0.11,0.2 0 0 0 9.12,5.13 0.21,0.33 45 0 0 9.09,5.09 L 7.72,3.7 A 0.21,0.33 45 0 0 7.6,3.66 Z M 3.62,6.13 a 0.21,0.33 0 1 0 0,0.66 h 1.95 a 0.21,0.33 0 0 0 0,-0.66 H 3.64 Z m 5.3,0 a 0.21,0.33 0 1 0 0,0.66 h 1.94 a 0.21,0.33 0 0 0 0,-0.66 H 8.93 Z"
     id="path2"
     inkscape:connector-curvature="0"
     style="fill:#5beedc" />
</svg>
